X:048
U: ~ = !turn!
%%topmargin 3cm
T:Denis Murphy Reel
B:Traditional Irish Fiddle Tunes. Randy Miller and Jack Perron.
Z:Transcribed by Ralph Palmer
R:Reel
L:1/8
M:C|
K:D
d=c | BE ~E2 B2 d=c | BE{/F}ED BdAF | D2 ((3FED) AD ((3FED) | DEFA Bded |
BE{/F}ED EFGA | BE ~E2 ((3BdB) AF | DEFA dedB | AFDF E2 d=c |
BE (3.E.E.E BEdE | BE ~E2 BdAF | DF ~F2 AFED | FABc dBed |
BE{/F}ED EFGA | BE ~E2 ((3BdB) AF | DFAF DFef | gfed Be [e2e2] ||
[e4e4] efed | ((3Bcd) ef gfed BAFA dedB | ADFE DEFA |
Be [e2e2] efed | Bdef Pg2 fg | ((3agf) ((3gfe) fged | {/e}dBAF E2 FA |
Be ([e2e2] e2) ed | [DB][Dd] df gfed | BAFA dcdB | AF ~F2 DEFA |
B[ee] [e2e2] efed | Bdef Jg2 fg | bafa gfed | ((3Bcd) ef {/a}gfed |]
